svg/24/logo-adobe-illustrator.svg

<svg width="24" height="24" viewBox="0 0 24 24" fill="currentColor" xmlns="http://www.w3.org/2000/svg"><path d="M11.2305 12.2076H9.27667C9.39205 11.8845 9.50744 11.523 9.61513 11.1306C9.69133 10.8925 9.76458 10.6544 9.8367 10.4199C9.88108 10.2757 9.92502 10.1328 9.96897 9.99219C10.0767 9.66142 10.1613 9.33065 10.2305 8.99988H10.2459C10.2759 9.10279 10.3059 9.21048 10.3373 9.32295C10.3622 9.41225 10.3879 9.50456 10.4151 9.59988C10.4767 9.82296 10.5459 10.046 10.6228 10.2845C10.6613 10.4037 10.6978 10.521 10.7344 10.6383C10.7709 10.7556 10.8074 10.873 10.8459 10.9922C10.9151 11.223 10.9844 11.446 11.0536 11.6537C11.1228 11.8537 11.1844 12.046 11.2305 12.2076Z"/><path fill-rule="evenodd" clip-rule="evenodd" d="M17.9618 3H6.03876C4.23107 3 2.76953 4.46154 2.76953 6.26923V17.7308C2.76953 19.5385 4.23107 21 6.03876 21H17.9618C19.7695 21 21.2311 19.5385 21.2311 17.7308V6.26923C21.2311 4.46154 19.7695 3 17.9618 3ZM8.83051 13.7691H11.6921L12.3228 15.5999C12.3382 15.6537 12.3921 15.6922 12.4459 15.6845H14.0536C14.1305 15.6845 14.1536 15.646 14.1305 15.5614L11.3228 7.63834C11.3151 7.59988 11.2844 7.5768 11.2228 7.5768H9.23051C9.19205 7.5845 9.16128 7.62296 9.16897 7.66142C9.16897 7.83065 9.15359 7.99988 9.12282 8.16142C9.10102 8.22682 9.08308 8.28835 9.06627 8.34603C9.05935 8.36976 9.05262 8.39284 9.0459 8.41526L6.56897 15.546C6.5459 15.6383 6.56897 15.6845 6.65359 15.6845H8.09974C8.16897 15.6922 8.23051 15.646 8.2459 15.5768L8.83051 13.7691ZM15.1613 8.65373C15.3459 8.83065 15.5921 8.93065 15.8459 8.92296C16.1074 8.93834 16.369 8.83834 16.5459 8.65373C16.7305 8.46142 16.8228 8.20757 16.8151 7.94603C16.8228 7.69219 16.7305 7.44603 16.5613 7.26142C16.3921 7.0845 16.1613 6.99219 15.8613 6.99219C15.6074 6.99219 15.3613 7.0845 15.1767 7.26142C14.9921 7.43834 14.8921 7.6845 14.8997 7.94603C14.8921 8.20757 14.9844 8.46142 15.1613 8.65373ZM14.9844 9.6768V15.5999C14.9844 15.6768 15.0228 15.723 15.0997 15.723H16.6074C16.6767 15.723 16.7074 15.6845 16.7074 15.5999V9.6768C16.7074 9.60757 16.6767 9.56911 16.6074 9.56911H15.0844C15.0151 9.56911 14.9844 9.59988 14.9844 9.6768Z"/></svg>

<svg xmlns="http://www.w3.org/2000/svg" width="24" height="24" fill="currentColor" viewBox="0 0 24 24">
  <path d="M11.23 12.208H9.277c.115-.324.23-.685.338-1.077.076-.239.15-.477.222-.711l.132-.428c.108-.33.192-.661.261-.992h.016l.091.323c.025.09.05.182.078.277.062.223.13.446.208.684l.111.354c.037.118.073.235.112.354.07.231.138.454.208.662.069.2.13.392.176.554Z"/>
  <path fill-rule="evenodd" d="M17.962 3H6.039a3.266 3.266 0 0 0-3.27 3.27v11.46A3.266 3.266 0 0 0 6.04 21h11.923a3.267 3.267 0 0 0 3.27-3.27V6.27A3.267 3.267 0 0 0 17.961 3ZM8.83 13.77h2.861l.63 1.83c.016.054.07.092.124.085h1.608c.076 0 .1-.039.076-.124l-2.807-7.923c-.008-.038-.039-.061-.1-.061H9.23c-.039.008-.07.046-.062.084 0 .17-.015.339-.046.5a5.15 5.15 0 0 0-.057.185l-.02.07-2.477 7.13c-.023.092 0 .139.085.139H8.1a.136.136 0 0 0 .146-.108l.585-1.808Zm6.33-5.116a.951.951 0 0 0 .685.269.905.905 0 0 0 .7-.27.973.973 0 0 0 .27-.707.971.971 0 0 0-.255-.685c-.169-.176-.4-.269-.7-.269-.254 0-.5.093-.684.27a.905.905 0 0 0-.277.684 1 1 0 0 0 .261.708Zm-.177 1.023V15.6c0 .077.039.123.116.123h1.507c.07 0 .1-.039.1-.123V9.677c0-.07-.03-.108-.1-.108h-1.523c-.069 0-.1.03-.1.108Z" clip-rule="evenodd"/>
</svg>
